X:1
T: Jackson's Rambles
C:
R:Jig
Q:180
K:D
M:6/8
L:1/16
FE|D2F2A2 B4A2|B2d2B2 B2A2F2|D2F2A2 d2A2F2|E2F2E2 E4F2|D2F2A2 B4A2|B2d2B2 B2A2F2|D2F2A2 D2A2G2|F2D2D2 D4FE|
D2F2A2 B4A2|B2d2B2 B2A2F2|D2F2A2 d2A2F2|E2F2E2 E4F2|D2F2A2 B4A2|B2d2B2 B2A2F2|D2F2A2 D2A2G2|F2D2D2 D4g2|
f2e2d2 d2f2a2|c'2g2e2 f2d2B2|A2F2A2 d2e2f2|g2e2e2 e4g2|f2e2d2 d2f2a2|b2g2e2 f2d2B2|A2F2A2 d4e2|f2d2d2 d4g2|
f2e2d2 d2f2a2|c'2g2e2 f2d2B2|A2F2A2 d2e2f2|g2e2e2 e4g2|g2b2g2 a2f2a2|e2g2e2 f2d2B2|A2F2A2 d4e2|f2d2d2 d4||
